packages/ffe-icons/icons/open/500/md/upgrade.svg

<svg xmlns="http://www.w3.org/2000/svg" height="24" viewBox="0 -960 960 960" width="24"><path d="M320-151.869q-19.152 0-32.326-13.174T274.5-197.37q0-19.152 13.174-32.326T320-242.87h320q19.152 0 32.326 13.174T685.5-197.37q0 19.153-13.174 32.327T640-151.869H320ZM480-322.87q-19.152 0-32.326-13.174T434.5-368.37v-275.76l-66.674 65.912q-12.674 12.674-31.446 13.055-18.771.38-32.206-13.055-12.674-12.673-12.674-31.826 0-19.152 12.674-31.826l143.761-143.761q6.717-6.717 14.913-9.815 8.195-3.098 17.152-3.098t17.152 3.098q8.196 3.098 14.913 9.815L655.826-641.87q12.674 12.674 13.055 31.446.38 18.772-13.055 32.206-12.674 12.674-31.826 12.674t-31.826-12.674L525.5-644.13v275.76q0 19.152-13.174 32.326T480-322.87Z"/></svg>

<svg xmlns="http://www.w3.org/2000/svg" height="24" viewBox="0 -960 960 960" width="24"><path d="M320-151.87q-19.15 0-32.33-13.17-13.17-13.18-13.17-32.33t13.17-32.33q13.18-13.17 32.33-13.17h320q19.15 0 32.33 13.17 13.17 13.18 13.17 32.33t-13.17 32.33q-13.18 13.17-32.33 13.17H320Zm160-171q-19.15 0-32.33-13.17-13.17-13.18-13.17-32.33v-275.76l-66.67 65.91q-12.68 12.68-31.45 13.06-18.77.38-32.21-13.06-12.67-12.67-12.67-31.82 0-19.16 12.67-31.83l143.76-143.76q6.72-6.72 14.92-9.82 8.19-3.09 17.15-3.09 8.96 0 17.15 3.09 8.2 3.1 14.92 9.82l143.76 143.76q12.67 12.67 13.05 31.45.38 18.77-13.05 32.2-12.68 12.68-31.83 12.68t-31.83-12.68l-66.67-65.91v275.76q0 19.15-13.17 32.33-13.18 13.17-32.33 13.17Z"/></svg>
